X:1
T:Title
%%score { ( 1 3 ) | ( 2 4 ) }
L:1/8
M:4/4
K:Ab
V:1 treble nm="Grand Piano"
V:3 treble 
V:2 bass 
V:4 bass 
V:1
 z4 z2[Q:1/4=100] [CE]2 | [Ec]3 [CE] [DF][DG][FA][FB] | [Ec]2 [CE]2 [Ec]2 [Ec]2 | B3 =A BdcB | %4
[M:9/8] [CA]2 [Ec]- [Ec] [CE]2- [CE] [CE]2 |[M:4/4] c3 c ccBc | [Fe]2 [Fd]2 F2 F2 | E3 E c2 B2 | %8
[M:3/4] [A,CA]6 |[M:1/4] c2 |[M:4/4] A6 z2 | F6[K:bass] z2 | [A,CE]4 A2 A2 |[M:3/4] B6 | %14
[M:1/4] c2 |[M:4/4] e3 c ccBc | [Fe]2 [Fd]2 F4 | E4 c2 B2 |[M:3/4] [CA]6 |] %19
V:2
 z4 z2 [A,,A,]2 | [A,,A,]3 [A,,A,] [D,A,][D,A,][D,A,][D,A,] | [A,,A,]2 [A,,A,]2 [A,,A,]2 [A,,A,]2 | %3
 [E,G,E]3 [E,_G,E] [E,=G,E][E,B,E][E,A,E][E,G,E] | %4
[M:9/8] [A,,A,]2 [A,,A,]- [A,,A,] [A,,A,]2- [A,,A,] [A,,A,]2 | %5
[M:4/4][K:treble] [A,E]3 [A,E] [A,E][A,E][G,B,E][A,_G] | [D,A,]2 [D,A,]2 [D,A,D]2 [D,A,D]2 | %7
 [E,A,C]3 [E,A,C] [E,A,E]2 [E,G,D]2 |[M:3/4] A,,6 |[M:1/4] E2 |[M:4/4] C6[K:treble] z2 | %11
 D6[K:bass] z2 | A,,4 [F,A,C]2 [F,A,C]2 |[M:3/4] [E,G,E]6 |[M:1/4] [A,E]2 | %15
[M:4/4][K:treble] [A,CE]3 [A,E] [A,E][A,E][G,B,E][A,_G] | [D,A,]2 [D,A,]2 [D,A,D]4 | %17
 [E,A,C]4 [E,A,E]2 [E,G,D]2 |[M:3/4] [A,,A,]6 |] %19
V:3
 x8 | x8 | x8 | x8 |[M:9/8] x9 |[M:4/4] x8 | x8 | x8 |[M:3/4] x6 |[M:1/4] x2 | %10
[M:4/4] z A,A,A, A,2 A2 | z[K:bass] A,A,A, A,2 z2 | x8 |[M:3/4] x6 |[M:1/4] x2 |[M:4/4] x8 | x8 | %17
 x8 |[M:3/4] x6 |] %19
V:4
 x8 | x8 | x8 | x8 |[M:9/8] x9 |[M:4/4][K:treble] x8 | x8 | x8 |[M:3/4] x6 |[M:1/4] x2 | %10
[M:4/4] z A,,A,,A,, A,,2[K:treble] F2 | z[K:bass] D,D,D, D,2 z2 | x8 |[M:3/4] x6 |[M:1/4] x2 | %15
[M:4/4][K:treble] x8 | x8 | x8 |[M:3/4] x6 |] %19

